X: 33214
T: Providence, The
R: reel
M: 4/4
K: Dmajor
|:F|E3F DEFA|d2fd gdfd|edBd ADFA|BdAF GFED|
E3F DEFA|d2fd gdfd|edBd A2FA|BdAG FDD:|
|:g|fd (3ddd fdge|fddf ecAg|fd (3ddd Adfd|ceag fdde|
fgaf gfec|dBAF G2FG|A2FB ABdf|afeg fdd:|

